!!!COM:	Josquin des Pres
**kern	**kern
*part2	*part1
*staff2	*staff1
*clefGv2	*clefG2
*k[]	*k[]
*M2/1	*M2/1
=1-	=1-
[0d	1.a
.	2g
=2	=2
1d]	1f
1c	2e
.	[2a
=3	=3
0B	2a]
.	4g
.	4f
.	1g
=4	=4
1A	2a
.	2cc
[1d	2b
.	[2a
=5	=5
1d]	4a]
.	4g
.	2f
2c	2e
2B	[2g
=6	=6
0c	4g]
.	4f
.	4e
.	4d
.	1e
=7	=7
1d	2d
.	2.a
1f	.
.	4b
.	[2cc
=8	=8
1e	4cc]
.	4b
.	4a
.	4g
[1d	2f
.	[2b
=9	=9
2d]	4b]
.	4a
2c	1a
1B	.
.	2g
=10	=10
0A	0a
==	==
*-	*-
